docs/icons/react.svg

<svg width="128" height="128" viewBox="0 0 128 128" fill="none" xmlns="http://www.w3.org/2000/svg">

<path fill-rule="evenodd" clip-rule="evenodd" d="M82.5457 32.2115C83.85 32.9659 84.8236 34.4481 85.3195 36.7707C85.8153 39.093 85.7961 42.1112 85.2295 45.6541C84.9915 47.1421 84.659 48.7103 84.234 50.3428C80.8249 49.5479 77.0804 48.9519 73.1074 48.5924C70.8094 45.324 68.421 42.3723 66.0285 39.8113C67.2269 38.6269 68.416 37.5546 69.583 36.6044C72.3624 34.3414 74.962 32.8156 77.2175 32.0847C79.4733 31.3536 81.2414 31.4571 82.5457 32.2115ZM62.4222 39.8113C61.2238 38.6269 60.0347 37.5546 58.8677 36.6045C56.0882 34.3414 53.4886 32.8156 51.2331 32.0847C48.9774 31.3536 47.2093 31.4571 45.9049 32.2115C44.6006 32.9659 43.6271 34.4481 43.1312 36.7707C42.6353 39.093 42.6546 42.1112 43.2212 45.6541C43.4592 47.1421 43.7917 48.7103 44.2166 50.3428C47.6258 49.5479 51.3703 48.9519 55.3433 48.5924C57.6413 45.324 60.0296 42.3723 62.4222 39.8113ZM64.2253 37.9558C62.9744 36.7201 61.7282 35.5967 60.4991 34.596C57.5766 32.2164 54.6959 30.4861 52.0307 29.6223C49.3658 28.7587 46.7728 28.7219 44.6135 29.9708C42.4542 31.2196 41.1896 33.4876 40.6037 36.2315C40.0178 38.9756 40.0734 42.34 40.6691 46.0652C40.9198 47.6323 41.268 49.2757 41.7109 50.9793C40.0165 51.4469 38.4215 51.9666 36.9412 52.5328C33.4226 53.8786 30.4861 55.5128 28.4067 57.3933C26.3273 59.2738 25 61.5042 25 64C25 66.4958 26.3273 68.7262 28.4067 70.6067C30.4861 72.4872 33.4226 74.1214 36.9412 75.4672C38.4215 76.0334 40.0165 76.5531 41.7109 77.0207C41.268 78.7243 40.9198 80.3677 40.6691 81.9348C40.0734 85.66 40.0178 89.0244 40.6037 91.7685C41.1896 94.5124 42.4542 96.7804 44.6135 98.0292C46.7728 99.2781 49.3658 99.2413 52.0307 98.3777C54.6959 97.5139 57.5766 95.7836 60.4991 93.404C61.7282 92.4033 62.9744 91.2799 64.2253 90.0442C65.4763 91.2799 66.7225 92.4033 67.9515 93.4041C70.8741 95.7836 73.7548 97.5139 76.42 98.3777C79.0849 99.2413 81.6778 99.2781 83.8371 98.0292C85.9964 96.7804 87.2611 94.5124 87.8469 91.7685C88.4328 89.0244 88.3773 85.66 87.7815 81.9348C87.5309 80.3677 87.1826 78.7243 86.7397 77.0207C88.4342 76.5531 90.0292 76.0334 91.5094 75.4672C95.0281 74.1214 97.9646 72.4872 100.044 70.6067C102.123 68.7262 103.451 66.4958 103.451 64C103.451 61.5042 102.123 59.2738 100.044 57.3933C97.9646 55.5128 95.0281 53.8786 91.5094 52.5328C90.0292 51.9666 88.4342 51.4469 86.7397 50.9793C87.1826 49.2757 87.5309 47.6323 87.7815 46.0652C88.3773 42.34 88.4328 38.9756 87.8469 36.2315C87.2611 33.4876 85.9964 31.2196 83.8371 29.9707C81.6778 28.7219 79.0849 28.7587 76.42 29.6223C73.7548 30.4861 70.8741 32.2164 67.9515 34.5959C66.7225 35.5966 65.4763 36.7201 64.2253 37.9558ZM83.5287 52.8341C80.8891 52.2238 78.0279 51.7337 74.9984 51.386C75.9861 52.9012 76.9516 54.474 77.8875 56.098C78.8231 57.7214 79.6997 59.3448 80.5155 60.9586C81.7295 58.1565 82.7365 55.4292 83.5287 52.8341ZM81.9869 64C83.6632 60.3723 85.0205 56.8246 86.038 53.4686C87.6604 53.9159 89.1811 54.4112 90.5855 54.9484C93.9312 56.2281 96.5497 57.7204 98.3093 59.3115C100.069 60.9027 100.864 62.4892 100.864 64C100.864 65.5108 100.069 67.0973 98.3093 68.6885C96.5497 70.2796 93.9312 71.7719 90.5855 73.0516C89.1811 73.5888 87.6604 74.0841 86.038 74.5314C85.0205 71.1754 83.6632 67.6277 81.9869 64ZM79.1296 64C78.0878 61.8207 76.9264 59.6098 75.6488 57.3929C74.3707 55.1754 73.0397 53.0617 71.6762 51.0677C69.2718 50.8819 66.7801 50.7841 64.2253 50.7841C61.6705 50.7841 59.1789 50.8819 56.7744 51.0677C55.4109 53.0617 54.0799 55.1754 52.8019 57.3929C51.5243 59.6098 50.3629 61.8207 49.3211 64C50.3629 66.1793 51.5243 68.3902 52.8019 70.6071C54.0799 72.8246 55.411 74.9383 56.7744 76.9323C59.1789 77.1181 61.6705 77.2159 64.2253 77.2159C66.7801 77.2159 69.2718 77.1181 71.6762 76.9323C73.0397 74.9383 74.3707 72.8246 75.6487 70.6071C76.9264 68.3902 78.0878 66.1793 79.1296 64ZM74.9984 76.614C75.9861 75.0988 76.9516 73.526 77.8875 71.902C78.8231 70.2786 79.6997 68.6552 80.5155 67.0414C81.7296 69.8435 82.7365 72.5708 83.5287 75.1659C80.8891 75.7762 78.0279 76.2663 74.9984 76.614ZM69.7425 79.6518C67.939 79.751 66.0969 79.8022 64.2253 79.8022C62.3537 79.8022 60.5116 79.751 58.7081 79.6518C60.5235 82.1063 62.3779 84.3438 64.2253 86.3288C66.0728 84.3438 67.9271 82.1063 69.7425 79.6518ZM66.0285 88.1887C68.421 85.6277 70.8093 82.676 73.1074 79.4076C77.0804 79.0481 80.8249 78.4521 84.234 77.6572C84.659 79.2897 84.9915 80.8579 85.2295 82.3459C85.7961 85.8888 85.8153 88.907 85.3195 91.2293C84.8236 93.5519 83.85 95.0341 82.5457 95.7885C81.2414 96.5429 79.4733 96.6464 77.2175 95.9154C74.962 95.1844 72.3624 93.6586 69.583 91.3956C68.416 90.4454 67.2269 89.3731 66.0285 88.1887ZM62.4222 88.1887C60.0296 85.6277 57.6413 82.676 55.3433 79.4076C51.3703 79.0481 47.6258 78.4521 44.2166 77.6572C43.7917 79.2897 43.4592 80.8579 43.2212 82.3459C42.6546 85.8888 42.6353 88.907 43.1312 91.2293C43.6271 93.5519 44.6006 95.0341 45.9049 95.7885C47.2093 96.5429 48.9774 96.6464 51.2331 95.9153C53.4886 95.1844 56.0882 93.6586 58.8676 91.3955C60.0347 90.4454 61.2238 89.3731 62.4222 88.1887ZM44.922 75.1659C47.5615 75.7762 50.4228 76.2663 53.4522 76.614C52.4646 75.0988 51.4991 73.526 50.5631 71.902C49.6275 70.2786 48.7509 68.6552 47.9351 67.0414C46.7211 69.8435 45.7142 72.5708 44.922 75.1659ZM47.9351 60.9586C48.7509 59.3448 49.6275 57.7214 50.5631 56.098C51.4991 54.474 52.4646 52.9012 53.4522 51.386C50.4228 51.7337 47.5615 52.2238 44.922 52.8341C45.7142 55.4292 46.7211 58.1565 47.9351 60.9586ZM46.4638 64C44.7875 67.6277 43.4302 71.1754 42.4126 74.5314C40.7903 74.0841 39.2695 73.5888 37.8652 73.0516C34.5195 71.7719 31.9009 70.2796 30.1414 68.6885C28.3819 67.0973 27.5863 65.5108 27.5863 64C27.5863 62.4892 28.3819 60.9027 30.1414 59.3115C31.9009 57.7204 34.5195 56.2281 37.8652 54.9484C39.2695 54.4112 40.7903 53.9159 42.4126 53.4686C43.4302 56.8246 44.7875 60.3723 46.4638 64ZM58.7081 48.3482C60.5116 48.249 62.3537 48.1978 64.2253 48.1978C66.0969 48.1978 67.9391 48.249 69.7425 48.3482C67.9271 45.8937 66.0727 43.6562 64.2253 41.6712C62.3779 43.6562 60.5235 45.8937 58.7081 48.3482ZM71.2945 64C71.2945 67.9112 68.1295 71.0818 64.2253 71.0818C60.3211 71.0818 57.1561 67.9112 57.1561 64C57.1561 60.0888 60.3211 56.9182 64.2253 56.9182C68.1295 56.9182 71.2945 60.0888 71.2945 64Z" fill="#61DAFB"/>
</svg>

<svg xmlns="http://www.w3.org/2000/svg" width="128" height="128" fill="none" xmlns:v="https://vecta.io/nano"><path fill-rule="evenodd" d="M82.546 32.212c1.304.754 2.278 2.237 2.774 4.559s.477 5.34-.09 8.883c-.238 1.488-.57 3.056-.996 4.689-3.409-.795-7.154-1.391-11.127-1.75-2.298-3.268-4.686-6.22-7.079-8.781 1.198-1.184 2.388-2.257 3.555-3.207 2.779-2.263 5.379-3.789 7.635-4.52s4.024-.628 5.328.127zm-20.123 7.6c-1.198-1.184-2.387-2.257-3.554-3.207-2.779-2.263-5.379-3.789-7.635-4.52s-4.024-.628-5.328.127-2.278 2.237-2.774 4.559-.477 5.34.09 8.883c.238 1.488.57 3.056.995 4.689 3.409-.795 7.154-1.391 11.127-1.75 2.298-3.268 4.686-6.22 7.079-8.781zm1.803-1.855a52.46 52.46 0 0 0-3.726-3.36c-2.922-2.38-5.803-4.11-8.468-4.974s-5.258-.9-7.417.349-3.424 3.517-4.01 6.261-.53 6.109.065 9.834a52.66 52.66 0 0 0 1.042 4.914 52.4 52.4 0 0 0-4.77 1.553c-3.519 1.346-6.455 2.98-8.535 4.861S25 61.504 25 64s1.327 4.726 3.407 6.607 5.016 3.515 8.535 4.861a52.4 52.4 0 0 0 4.77 1.553 52.66 52.66 0 0 0-1.042 4.914c-.596 3.725-.651 7.09-.065 9.834s1.85 5.012 4.01 6.261 4.752 1.212 7.417.349 5.546-2.594 8.468-4.974a52.46 52.46 0 0 0 3.726-3.36 52.53 52.53 0 0 0 3.726 3.36c2.923 2.38 5.803 4.11 8.469 4.974s5.258.9 7.417-.349 3.424-3.517 4.01-6.261.53-6.109-.065-9.834c-.251-1.567-.599-3.21-1.042-4.914a52.38 52.38 0 0 0 4.77-1.553c3.519-1.346 6.455-2.98 8.535-4.861s3.407-4.111 3.407-6.607-1.328-4.726-3.407-6.607-5.016-3.515-8.535-4.861a52.38 52.38 0 0 0-4.77-1.553c.443-1.704.791-3.347 1.042-4.914.596-3.725.651-7.09.065-9.834s-1.851-5.012-4.01-6.261-4.752-1.212-7.417-.348-5.546 2.594-8.469 4.974c-1.229 1.001-2.475 2.124-3.726 3.36zm19.303 14.878c-2.64-.61-5.501-1.1-8.53-1.448.988 1.515 1.953 3.088 2.889 4.712a100.96 100.96 0 0 1 2.628 4.861c1.214-2.802 2.221-5.529 3.013-8.124zM81.987 64c1.676-3.628 3.034-7.175 4.051-10.531 1.622.447 3.143.943 4.547 1.48 3.346 1.28 5.964 2.772 7.724 4.363s2.555 3.178 2.555 4.688-.795 3.097-2.555 4.689-4.378 3.083-7.724 4.363c-1.404.537-2.925 1.033-4.547 1.48-1.017-3.356-2.375-6.904-4.051-10.531zm-2.857 0c-1.042-2.179-2.203-4.39-3.481-6.607s-2.609-4.331-3.973-6.325c-2.404-.186-4.896-.284-7.451-.284a96.85 96.85 0 0 0-7.451.284 97.24 97.24 0 0 0-3.972 6.325c-1.278 2.217-2.439 4.428-3.481 6.607 1.042 2.179 2.203 4.39 3.481 6.607s2.609 4.331 3.972 6.325a96.85 96.85 0 0 0 7.451.284c2.555 0 5.046-.098 7.451-.284a97.24 97.24 0 0 0 3.973-6.325c1.278-2.217 2.439-4.428 3.481-6.607zm-4.131 12.614c.988-1.515 1.953-3.088 2.889-4.712a100.96 100.96 0 0 0 2.628-4.861c1.214 2.802 2.221 5.529 3.013 8.124-2.64.61-5.501 1.1-8.53 1.448zm-5.256 3.038c-1.804.099-3.646.15-5.517.15s-3.714-.051-5.517-.15c1.815 2.455 3.67 4.692 5.517 6.677 1.847-1.985 3.702-4.222 5.517-6.677zm-3.714 8.537c2.393-2.561 4.781-5.513 7.079-8.781 3.973-.359 7.718-.956 11.127-1.75.425 1.632.758 3.201.996 4.689.567 3.543.586 6.561.09 8.883s-1.47 3.805-2.774 4.559-3.072.858-5.328.127-4.855-2.257-7.635-4.52c-1.167-.95-2.356-2.023-3.555-3.207zm-3.606 0c-2.393-2.561-4.781-5.513-7.079-8.781-3.973-.359-7.718-.956-11.127-1.75-.425 1.632-.757 3.201-.995 4.689-.567 3.543-.586 6.561-.09 8.883s1.469 3.805 2.774 4.559 3.073.858 5.328.127 4.855-2.257 7.635-4.52a49.92 49.92 0 0 0 3.555-3.207zm-17.5-13.023c2.64.61 5.501 1.1 8.53 1.448-.988-1.515-1.953-3.088-2.889-4.712a100.96 100.96 0 0 1-2.628-4.861c-1.214 2.802-2.221 5.529-3.013 8.124zm3.013-14.207a100.96 100.96 0 0 1 2.628-4.861c.936-1.624 1.901-3.197 2.889-4.712-3.029.348-5.891.838-8.53 1.448.792 2.595 1.799 5.322 3.013 8.124zM46.464 64c-1.676 3.628-3.034 7.175-4.051 10.531a49.83 49.83 0 0 1-4.547-1.48c-3.346-1.28-5.964-2.772-7.724-4.363S27.586 65.511 27.586 64s.796-3.097 2.555-4.688 4.378-3.083 7.724-4.363a49.83 49.83 0 0 1 4.547-1.48c1.018 3.356 2.375 6.904 4.051 10.531zm12.244-15.652c1.803-.099 3.646-.15 5.517-.15s3.714.051 5.517.15c-1.815-2.454-3.67-4.692-5.517-6.677-1.847 1.985-3.702 4.223-5.517 6.677zM71.295 64c0 3.911-3.165 7.082-7.069 7.082S57.156 67.911 57.156 64s3.165-7.082 7.069-7.082 7.069 3.171 7.069 7.082z" fill="#61dafb"/></svg>
